X:1
T: Schottis efter Blinde Janne
R:Schottis
Z:Jan Erik Ekman, 2008-11-02
O:Småland
N:Smålands Spelmansförbunds Allspelslåtar nr.15
M: 2/4
L: 1/16
K:G
V:1
(DG)BA G2G2|(EA)cB A2(Ac)|e2(dB) d2(cA)|(GB)ed B2G2|
(DG)BA G2G2|(EA)cB A2(Ac)|e2(dB) (dc)AF|G2B2 G4:|
|:e2(ce) g2(fe)|(dBG)B d2d2|(cAF)A c2c2|(BAG)B d2d2|
e2(ce) g2(fe)|(dBGB) d2d2|(cBA)B (cAF)A|G2B2 G4:|

